packages/templates/gallery/basic-5.svg

<svg class="typst-doc" viewBox="0 0 200 180" width="200pt" height="180pt" xmlns="http://www.w3.org/2000/svg" xmlns:xlink="http://www.w3.org/1999/xlink" xmlns:h5="http://www.w3.org/1999/xhtml">
    <path class="typst-shape" fill="#ffffff" fill-rule="nonzero" d="M 0 0v 180 h 200 v -180 Z "/>
    <g>
        <g class="typst-group" transform="matrix(1 0 0 1 81.25 2.5)">
            <g>
                <g class="typst-group">
                    <g>
                        <path class="typst-shape" fill="#eeeeee" fill-rule="nonzero" transform="matrix(1 0 0 1 16.5 26)" d="M 0 0v 104.25 h 4.5 v -104.25 Z "/>
                        <g class="typst-group" transform="matrix(1 0 0 1 6.150000000000001 26)">
                            <g>
                                <path class="typst-shape" fill="#000000" fill-rule="nonzero" stroke="#000000" stroke-width="0.5" stroke-linecap="butt" stroke-linejoin="miter" stroke-miterlimit="4" d="M 0 0m 12.6 0 l 12.6 9 l -12.6 9 l -12.6 -9 Z "/>
                            </g>
                        </g>
                        <a transform="matrix(1 0 0 1 6.150000000000001 26)" href="bead://heaven-col0-active1" xlink:href="bead://heaven-col0-active1">
                            <rect width="25.199999999999996" height="18" fill="transparent" stroke="none"/>
                        </a>
                        <g class="typst-group" transform="matrix(1 0 0 1 6.150000000000001 56)">
                            <g>
                                <path class="typst-shape" fill="#e6e6e6" fill-rule="nonzero" stroke="#000000" stroke-width="0.5" stroke-linecap="butt" stroke-linejoin="miter" stroke-miterlimit="4" d="M 0 0m 12.6 0 l 12.6 9 l -12.6 9 l -12.6 -9 Z "/>
                            </g>
                        </g>
                        <a transform="matrix(1 0 0 1 6.150000000000001 56)" href="bead://earth-col0-pos0-active0" xlink:href="bead://earth-col0-pos0-active0">
                            <rect width="25.199999999999996" height="18" fill="transparent" stroke="none"/>
                        </a>
                        <g class="typst-group" transform="matrix(1 0 0 1 6.150000000000001 74.75)">
                            <g>
                                <path class="typst-shape" fill="#e6e6e6" fill-rule="nonzero" stroke="#000000" stroke-width="0.5" stroke-linecap="butt" stroke-linejoin="miter" stroke-miterlimit="4" d="M 0 0m 12.6 0 l 12.6 9 l -12.6 9 l -12.6 -9 Z "/>
                            </g>
                        </g>
                        <a transform="matrix(1 0 0 1 6.150000000000001 74.75)" href="bead://earth-col0-pos1-active0" xlink:href="bead://earth-col0-pos1-active0">
                            <rect width="25.199999999999996" height="18" fill="transparent" stroke="none"/>
                        </a>
                        <g class="typst-group" transform="matrix(1 0 0 1 6.150000000000001 93.5)">
                            <g>
                                <path class="typst-shape" fill="#e6e6e6" fill-rule="nonzero" stroke="#000000" stroke-width="0.5" stroke-linecap="butt" stroke-linejoin="miter" stroke-miterlimit="4" d="M 0 0m 12.6 0 l 12.6 9 l -12.6 9 l -12.6 -9 Z "/>
                            </g>
                        </g>
                        <a transform="matrix(1 0 0 1 6.150000000000001 93.5)" href="bead://earth-col0-pos2-active0" xlink:href="bead://earth-col0-pos2-active0">
                            <rect width="25.199999999999996" height="18" fill="transparent" stroke="none"/>
                        </a>
                        <g class="typst-group" transform="matrix(1 0 0 1 6.150000000000001 112.25)">
                            <g>
                                <path class="typst-shape" fill="#e6e6e6" fill-rule="nonzero" stroke="#000000" stroke-width="0.5" stroke-linecap="butt" stroke-linejoin="miter" stroke-miterlimit="4" d="M 0 0m 12.6 0 l 12.6 9 l -12.6 9 l -12.6 -9 Z "/>
                            </g>
                        </g>
                        <a transform="matrix(1 0 0 1 6.150000000000001 112.25)" href="bead://earth-col0-pos3-active0" xlink:href="bead://earth-col0-pos3-active0">
                            <rect width="25.199999999999996" height="18" fill="transparent" stroke="none"/>
                        </a>
                        <path class="typst-shape" fill="#000000" fill-rule="nonzero" transform="matrix(1 0 0 1 0 45)" d="M 0 0v 3 h 37.5 v -3 Z "/>
                    </g>
                </g>
            </g>
        </g>
    </g>
</svg>

<svg class="typst-doc" viewBox="0 0 200 180" width="200pt" height="180pt" xmlns="http://www.w3.org/2000/svg" xmlns:xlink="http://www.w3.org/1999/xlink" xmlns:h5="http://www.w3.org/1999/xhtml">
    <path class="typst-shape" fill="#ffffff" fill-rule="nonzero" d="M 0 0 L 0 180 L 200 180 L 200 0 Z "/>
    <g>
        <g transform="translate(81.25 2.5)">
            <g class="typst-group">
                <g>
                    <g transform="translate(0 0)">
                        <g class="typst-group">
                            <g>
                                <g transform="translate(16.5 26)">
                                    <path class="typst-shape" fill="#eeeeee" fill-rule="nonzero" d="M 0 0 L 0 104.25 L 4.5 104.25 L 4.5 0 Z "/>
                                </g>
                                <g transform="translate(6.150000000000001 26)">
                                    <g class="typst-group">
                                        <g>
                                            <g transform="translate(0 0)">
                                                <path class="typst-shape" fill="#000000" fill-rule="nonzero" stroke="#000000" stroke-width="0.5" stroke-linecap="butt" stroke-linejoin="miter" stroke-miterlimit="4" d="M 12.6 0 L 25.2 9 L 12.6 18 L 0 9 Z "/>
                                            </g>
                                        </g>
                                    </g>
                                </g>
                                <g transform="translate(6.150000000000001 56)">
                                    <g class="typst-group">
                                        <g>
                                            <g transform="translate(0 0)">
                                                <path class="typst-shape" fill="#e6e6e6" fill-rule="nonzero" stroke="#000000" stroke-width="0.5" stroke-linecap="butt" stroke-linejoin="miter" stroke-miterlimit="4" d="M 12.6 0 L 25.2 9 L 12.6 18 L 0 9 Z "/>
                                            </g>
                                        </g>
                                    </g>
                                </g>
                                <g transform="translate(6.150000000000001 74.75)">
                                    <g class="typst-group">
                                        <g>
                                            <g transform="translate(0 0)">
                                                <path class="typst-shape" fill="#e6e6e6" fill-rule="nonzero" stroke="#000000" stroke-width="0.5" stroke-linecap="butt" stroke-linejoin="miter" stroke-miterlimit="4" d="M 12.6 0 L 25.2 9 L 12.6 18 L 0 9 Z "/>
                                            </g>
                                        </g>
                                    </g>
                                </g>
                                <g transform="translate(6.150000000000001 93.5)">
                                    <g class="typst-group">
                                        <g>
                                            <g transform="translate(0 0)">
                                                <path class="typst-shape" fill="#e6e6e6" fill-rule="nonzero" stroke="#000000" stroke-width="0.5" stroke-linecap="butt" stroke-linejoin="miter" stroke-miterlimit="4" d="M 12.6 0 L 25.2 9 L 12.6 18 L 0 9 Z "/>
                                            </g>
                                        </g>
                                    </g>
                                </g>
                                <g transform="translate(6.150000000000001 112.25)">
                                    <g class="typst-group">
                                        <g>
                                            <g transform="translate(0 0)">
                                                <path class="typst-shape" fill="#e6e6e6" fill-rule="nonzero" stroke="#000000" stroke-width="0.5" stroke-linecap="butt" stroke-linejoin="miter" stroke-miterlimit="4" d="M 12.6 0 L 25.2 9 L 12.6 18 L 0 9 Z "/>
                                            </g>
                                        </g>
                                    </g>
                                </g>
                                <g transform="translate(0 45)">
                                    <path class="typst-shape" fill="#000000" fill-rule="nonzero" d="M 0 0 L 0 3 L 37.5 3 L 37.5 0 Z "/>
                                </g>
                            </g>
                        </g>
                    </g>
                </g>
            </g>
        </g>
    </g>
</svg>
